static/icons/snowflake-etl.svg

<svg width="1024" height="1024" viewBox="0 0 1024 1024" fill="none" xmlns="http://www.w3.org/2000/svg">
<path fill="currentColor" d="M663.111 622.499L574.131 571.096C561.631 563.899 545.645 568.179 538.41 580.68C535.607 585.604 534.509 591.021 535.039 596.286V696.744C535.039 711.101 546.706 722.768 561.1 722.768C575.457 722.768 587.124 711.101 587.124 696.744V638.977L636.974 667.766C649.475 675.001 665.498 670.683 672.695 658.182C679.93 645.682 675.65 629.696 663.111 622.499Z" />
<path fill="currentColor" d="M441.82 512.336C441.972 503.056 437.085 494.419 429.055 489.76L340.074 438.394C336.21 436.159 331.778 434.985 327.347 434.985C318.217 434.985 309.732 439.872 305.187 447.751C298.141 459.948 302.346 475.593 314.543 482.638L365.833 512.223L314.543 541.845C308.634 545.254 304.391 550.747 302.649 557.338C300.868 563.929 301.777 570.823 305.187 576.732C309.732 584.611 318.217 589.498 327.309 589.498C331.778 589.498 336.21 588.324 340.074 586.089L429.055 534.723C437.009 530.102 441.896 521.541 441.82 512.336Z" />
<path fill="currentColor" d="M360.269 401.991L449.249 453.357C459.629 459.38 472.432 457.41 480.614 449.417C485.804 444.644 489.024 437.826 489.024 430.25V327.292C489.024 312.898 477.356 301.23 463 301.23C448.605 301.23 436.938 312.898 436.938 327.292V385.892L386.406 356.725C373.906 349.49 357.921 353.77 350.685 366.271C343.45 378.771 347.769 394.756 360.269 401.991Z" />
<path fill="currentColor" d="M560.346 516.503C560.346 518.473 559.21 521.2 557.808 522.64L522.542 557.906C521.14 559.307 518.375 560.444 516.405 560.444H507.428C505.458 560.444 502.693 559.307 501.291 557.906L465.987 522.64C464.585 521.2 463.449 518.473 463.449 516.503V507.525C463.449 505.518 464.585 502.79 465.987 501.389L501.291 466.085C502.693 464.683 505.458 463.547 507.428 463.547H516.405C518.375 463.547 521.14 464.683 522.542 466.085L557.808 501.389C559.21 502.79 560.346 505.518 560.346 507.525V516.503ZM528.868 512.185V511.806C528.868 510.366 528.034 508.359 527.012 507.298L516.595 496.919C515.572 495.858 513.564 495.025 512.087 495.025H511.708C510.269 495.025 508.261 495.858 507.2 496.919L496.821 507.298C495.799 508.321 494.965 510.329 494.965 511.806V512.185C494.965 513.662 495.799 515.67 496.821 516.692L507.2 527.109C508.261 528.132 510.269 528.966 511.708 528.966H512.087C513.564 528.966 515.572 528.132 516.595 527.109L527.012 516.692C528.034 515.67 528.868 513.662 528.868 512.185Z" />
<path fill="currentColor" d="M574.14 453.357L663.12 401.991C675.62 394.794 679.939 378.771 672.704 366.271C665.469 353.77 649.483 349.49 636.983 356.725L587.133 385.514V327.292C587.133 312.898 575.465 301.23 561.109 301.23C546.714 301.23 535.047 312.898 535.047 327.292V428.205C534.555 433.432 535.578 438.887 538.419 443.811C545.654 456.312 561.639 460.592 574.14 453.357Z" />
<path fill="currentColor" d="M467.091 568.064C461.182 566.928 454.856 567.875 449.249 571.095L360.269 622.498C347.769 629.695 343.45 645.681 350.685 658.181C357.921 670.719 373.906 675 386.406 667.765L436.938 638.597V696.743C436.938 711.1 448.605 722.767 463 722.767C477.356 722.767 489.024 711.1 489.024 696.743V593.785C489.024 580.792 479.516 570.034 467.091 568.064Z" />
<path fill="currentColor" d="M718.726 447.442C711.529 434.904 695.506 430.624 683.005 437.859L594.025 489.224C585.502 494.149 580.805 503.164 580.957 512.331C580.881 521.46 585.578 530.362 594.025 535.211L683.005 586.614C695.506 593.811 711.491 589.531 718.726 577.03C725.961 564.53 721.643 548.544 709.143 541.309L658.762 512.217L709.143 483.126C721.681 475.928 725.961 459.943 718.726 447.442Z" />
<path fill="currentColor" d="M172.115 441.8C199.021 449.044 218.824 473.614 218.824 502.809C218.824 532.022 198.995 556.605 172.062 563.831L172.062 732.418C172.062 797.035 224.445 849.418 289.062 849.418H734.652C799.453 849.418 851.978 796.874 851.955 732.073L851.896 566.044L796.732 510.918L867.97 439.629L939.259 510.867L884.133 566.032L884.192 732.061C884.222 814.671 817.261 881.655 734.652 881.655L289.879 881.654C207.036 881.654 139.879 814.497 139.879 731.654L139.879 564C112.618 556.996 92.4727 532.255 92.4727 502.809C92.4727 473.363 112.618 448.622 139.878 441.617L139.824 290.945C139.795 208.335 206.755 141.351 289.365 141.351L827.276 141.351L784.034 98.1097C777.739 91.8151 777.739 81.6094 784.034 75.3147C790.329 69.0201 800.534 69.0201 806.829 75.3148L877.587 146.072C883.881 152.367 883.881 162.573 877.587 168.867L806.829 239.625C800.534 245.92 790.329 245.92 784.034 239.625C777.739 233.331 777.739 223.125 784.034 216.83L827.276 173.588L289.365 173.588C224.563 173.589 172.038 226.132 172.061 290.934V290.949H172.062L172.115 441.8Z" />
</svg>

<?xml version="1.0" encoding="UTF-8"?>
<svg id="Layer_1" xmlns="http://www.w3.org/2000/svg" version="1.1" viewBox="0 0 1024 1024">
  <!-- Generator: Adobe Illustrator 29.4.0, SVG Export Plug-In . SVG Version: 2.1.0 Build 152)  -->
  <path d="M663.1,622.5l-89-51.4c-12.5-7.2-28.5-2.9-35.7,9.6-2.8,4.9-3.9,10.3-3.4,15.6v100.5c0,14.4,11.7,26,26.1,26s26-11.7,26-26v-57.8l49.8,28.8c12.5,7.2,28.5,2.9,35.7-9.6,7.2-12.5,3-28.5-9.6-35.7Z"/>
  <path d="M441.8,512.3c.2-9.3-4.7-17.9-12.8-22.6l-89-51.4c-3.9-2.2-8.3-3.4-12.7-3.4-9.1,0-17.6,4.9-22.2,12.8-7,12.2-2.8,27.8,9.4,34.9l51.3,29.6-51.3,29.6c-5.9,3.4-10.2,8.9-11.9,15.5-1.8,6.6-.9,13.5,2.5,19.4,4.5,7.9,13,12.8,22.1,12.8s8.9-1.2,12.8-3.4l89-51.4c8-4.6,12.8-13.2,12.8-22.4Z"/>
  <path d="M360.3,402l89,51.4c10.4,6,23.2,4.1,31.4-3.9,5.2-4.8,8.4-11.6,8.4-19.2v-103c0-14.4-11.7-26.1-26-26.1s-26.1,11.7-26.1,26.1v58.6l-50.5-29.2c-12.5-7.2-28.5-3-35.7,9.5-7.2,12.5-2.9,28.5,9.6,35.7Z"/>
  <path d="M560.3,516.5c0,2-1.1,4.7-2.5,6.1l-35.3,35.3c-1.4,1.4-4.2,2.5-6.1,2.5h-9c-2,0-4.7-1.1-6.1-2.5l-35.3-35.3c-1.4-1.4-2.5-4.2-2.5-6.1v-9c0-2,1.1-4.7,2.5-6.1l35.3-35.3c1.4-1.4,4.2-2.5,6.1-2.5h9c2,0,4.7,1.1,6.1,2.5l35.3,35.3c1.4,1.4,2.5,4.1,2.5,6.1v9ZM528.9,512.2v-.4c0-1.4-.8-3.4-1.9-4.5l-10.4-10.4c-1-1.1-3-1.9-4.5-1.9h-.4c-1.4,0-3.4.8-4.5,1.9l-10.4,10.4c-1,1-1.9,3-1.9,4.5v.4c0,1.5.8,3.5,1.9,4.5l10.4,10.4c1.1,1,3.1,1.9,4.5,1.9h.4c1.5,0,3.5-.8,4.5-1.9l10.4-10.4c1-1,1.9-3,1.9-4.5Z"/>
  <path d="M574.1,453.4l89-51.4c12.5-7.2,16.8-23.2,9.6-35.7-7.2-12.5-23.2-16.8-35.7-9.5l-49.8,28.8v-58.2c0-14.4-11.7-26.1-26-26.1s-26.1,11.7-26.1,26.1v100.9c-.5,5.2.5,10.7,3.4,15.6,7.2,12.5,23.2,16.8,35.7,9.5Z"/>
  <path d="M467.1,568.1c-5.9-1.1-12.2-.2-17.8,3l-89,51.4c-12.5,7.2-16.8,23.2-9.6,35.7,7.2,12.5,23.2,16.8,35.7,9.6l50.5-29.2v58.1c0,14.4,11.7,26,26.1,26s26-11.7,26-26v-103c0-13-9.5-23.8-21.9-25.7Z"/>
  <path d="M718.7,447.4c-7.2-12.5-23.2-16.8-35.7-9.6l-89,51.4c-8.5,4.9-13.2,13.9-13.1,23.1,0,9.1,4.6,18,13.1,22.9l89,51.4c12.5,7.2,28.5,2.9,35.7-9.6,7.2-12.5,2.9-28.5-9.6-35.7l-50.4-29.1,50.4-29.1c12.5-7.2,16.8-23.2,9.6-35.7Z"/>
  <path d="M172.1,441.8c26.9,7.2,46.7,31.8,46.7,61s-19.8,53.8-46.8,61v168.6c0,64.6,52.4,117,117,117h445.6c64.8,0,117.3-52.5,117.3-117.3v-166c0,0-55.2-55.1-55.2-55.1l71.2-71.3,71.3,71.2-55.1,55.2v166c0,82.6-66.9,149.6-149.5,149.6h-444.8c-82.8,0-150-67.2-150-150v-167.7c-27.3-7-47.4-31.7-47.4-61.2s20.1-54.2,47.4-61.2v-150.7c0-82.6,66.9-149.6,149.5-149.6h537.9l-43.2-43.2c-6.3-6.3-6.3-16.5,0-22.8,6.3-6.3,16.5-6.3,22.8,0l70.8,70.8c6.3,6.3,6.3,16.5,0,22.8l-70.8,70.8c-6.3,6.3-16.5,6.3-22.8,0-6.3-6.3-6.3-16.5,0-22.8l43.2-43.2H289.4c-64.8,0-117.3,52.5-117.3,117.3h0s0,0,0,0v150.9Z"/>
</svg>
